X: 3400
T: Berries In The Night
R: reel
M: 4/4
K: Gminor
|:G,G,B,E DG,B,G|FDCD B,DA,D|G,G,B,E DG,B,D|(3GG(G F) (G2 D) B,A,|
G,G,B,E DG,B,G|FDCD B,DA,D|G,G,B,E DG,B,D|1 (3GG(G F) (G2 D) B,A,:|2 (3GG(G F) (G2 D) GA||
|:BDDB BDDB|AD D (d2 c) Bc|BDDB BDDB|AF D (G2 D) GA|
BDDB BDDB|AD D (d2 c) Bc|BDDB BDDB|1 AF D (G2 D) GA:|2 AF D G3 G2||

